assets/1. F-P/Menorah/Color/Menorah-color.svg

<svg width="100%" height="100%" viewBox="0 0 32 32" fill="none" xmlns="http://www.w3.org/2000/svg">
<g filter="url(#filter0_ii_18590_1109)">
<rect x="2.51233" y="2.4375" width="27.875" height="27.875" rx="3.6" fill="url(#paint0_linear_18590_1109)"/>
<rect x="2.51233" y="2.4375" width="27.875" height="27.875" rx="3.6" fill="url(#paint1_radial_18590_1109)"/>
</g>
<g filter="url(#filter1_f_18590_1109)">
<path d="M28.6998 4.9375V27.8125" stroke="url(#paint2_linear_18590_1109)" stroke-width="1.5" stroke-linecap="round"/>
</g>
<g filter="url(#filter2_f_18590_1109)">
<path d="M5.9762 4.25H27.7574" stroke="url(#paint3_linear_18590_1109)" stroke-width="1.5" stroke-linecap="round"/>
</g>
<g filter="url(#filter3_f_18590_1109)">
<path d="M6.58868 5.54877L7.20869 6.65358C7.53902 7.2422 7.11361 7.96875 6.43864 7.96875C5.77832 7.96875 5.35161 7.27049 5.65286 6.68288L6.23083 5.55551C6.30474 5.41135 6.5094 5.4075 6.58868 5.54877Z" fill="#6A4EBE"/>
<path d="M9.73994 6.65358L9.11993 5.54877C9.04065 5.4075 8.83599 5.41135 8.76208 5.55551L8.18411 6.68288C7.88286 7.27049 8.30957 7.96875 8.96989 7.96875C9.64486 7.96875 10.0703 7.2422 9.73994 6.65358Z" fill="#6A4EBE"/>
<path d="M11.6199 5.54877L12.2399 6.65358C12.5703 7.2422 12.1449 7.96875 11.4699 7.96875C10.8096 7.96875 10.3829 7.27049 10.6841 6.68288L11.2621 5.55551C11.336 5.41135 11.5406 5.4075 11.6199 5.54877Z" fill="#6A4EBE"/>
<path d="M19.7161 6.65358L19.0961 5.54877C19.0168 5.4075 18.8121 5.41135 18.7382 5.55551L18.1602 6.68288C17.859 7.27049 18.2857 7.96875 18.946 7.96875C19.621 7.96875 20.0464 7.2422 19.7161 6.65358Z" fill="#6A4EBE"/>
<path d="M27.2239 6.65358L26.6039 5.54877C26.5246 5.4075 26.3199 5.41135 26.246 5.55551L25.6681 6.68288C25.3668 7.27049 25.7935 7.96875 26.4538 7.96875C27.1288 7.96875 27.5542 7.2422 27.2239 6.65358Z" fill="#6A4EBE"/>
<path d="M24.7239 6.65358L24.1039 5.54877C24.0246 5.4075 23.8199 5.41135 23.746 5.55551L23.1681 6.68288C22.8668 7.27049 23.2935 7.96875 23.9538 7.96875C24.6288 7.96875 25.0542 7.2422 24.7239 6.65358Z" fill="#6A4EBE"/>
<path d="M16.5961 5.54877L17.2161 6.65358C17.5464 7.2422 17.121 7.96875 16.446 7.96875C15.7857 7.96875 15.359 7.27049 15.6602 6.68288L16.2382 5.55551C16.3121 5.41135 16.5168 5.4075 16.5961 5.54877Z" fill="#6A4EBE"/>
<path d="M21.5726 5.54877L22.1926 6.65358C22.523 7.2422 22.0976 7.96875 21.4226 7.96875C20.7623 7.96875 20.3356 7.27049 20.6368 6.68288L21.2148 5.55551C21.2887 5.41135 21.4933 5.4075 21.5726 5.54877Z" fill="#6A4EBE"/>
<path d="M14.6848 6.65358L14.0648 5.54877C13.9855 5.4075 13.7809 5.41135 13.707 5.55551L13.129 6.68288C12.8277 7.27049 13.2545 7.96875 13.9148 7.96875C14.5897 7.96875 15.0152 7.2422 14.6848 6.65358Z" fill="#6A4EBE"/>
<path d="M19.212 27.8125C19.35 27.8125 19.463 27.7004 19.4516 27.5628C19.3928 26.8586 19.0867 26.1946 18.5833 25.6912C18.2197 25.3276 17.7724 25.067 17.2867 24.9281C17.2429 24.9156 17.212 24.8759 17.212 24.8303V21.0834C17.212 21.0309 17.2531 20.9873 17.3055 20.9833C22.8915 20.5529 27.2901 15.8839 27.2901 10.1875C27.2901 9.77329 26.9543 9.4375 26.5401 9.4375C26.1259 9.4375 25.7901 9.77329 25.7901 10.1875C25.7901 15.0499 22.0697 19.0434 17.3202 19.4767C17.2621 19.482 17.212 19.436 17.212 19.3776V18.4953C17.212 18.4435 17.2518 18.4003 17.3033 18.3951C21.4644 17.9737 24.712 14.4598 24.712 10.1875C24.712 9.77329 24.3762 9.4375 23.962 9.4375C23.5478 9.4375 23.212 9.77329 23.212 10.1875C23.212 13.6237 20.6444 16.4601 17.3232 16.8831C17.2641 16.8906 17.212 16.8442 17.212 16.7846V15.9768C17.212 15.9266 17.2495 15.8842 17.2992 15.877C20.078 15.4716 22.212 13.0788 22.212 10.1875C22.212 9.77329 21.8762 9.4375 21.462 9.4375C21.0478 9.4375 20.712 9.77329 20.712 10.1875C20.712 12.2375 19.2606 13.9485 17.3293 14.3489C17.2684 14.3616 17.212 14.3144 17.212 14.2522V13.4297C17.212 13.3833 17.244 13.3431 17.2889 13.3314C18.6833 12.9656 19.712 11.6967 19.712 10.1875C19.712 9.77329 19.3762 9.4375 18.962 9.4375C18.5478 9.4375 18.212 9.77329 18.212 10.1875C18.212 10.8292 17.8666 11.3902 17.3516 11.6948C17.2884 11.7322 17.212 11.6843 17.212 11.6109V10.1875C17.212 9.77329 16.8762 9.4375 16.462 9.4375C16.0478 9.4375 15.712 9.77329 15.712 10.1875V11.6109C15.712 11.6843 15.6355 11.7322 15.5723 11.6948C15.0573 11.3902 14.712 10.8292 14.712 10.1875C14.712 9.77329 14.3762 9.4375 13.962 9.4375C13.5478 9.4375 13.212 9.77329 13.212 10.1875C13.212 11.6967 14.2407 12.9656 15.6351 13.3314C15.68 13.3431 15.712 13.3833 15.712 13.4297V14.2522C15.712 14.3144 15.6555 14.3616 15.5946 14.3489C13.6634 13.9485 12.212 12.2375 12.212 10.1875C12.212 9.77329 11.8762 9.4375 11.462 9.4375C11.0478 9.4375 10.712 9.77329 10.712 10.1875C10.712 13.0788 12.8459 15.4716 15.6247 15.877C15.6745 15.8842 15.712 15.9266 15.712 15.9768V16.7846C15.712 16.8442 15.6599 16.8906 15.6008 16.8831C12.2795 16.4601 9.71198 13.6237 9.71198 10.1875C9.71198 9.77329 9.37619 9.4375 8.96198 9.4375C8.54776 9.4375 8.21198 9.77329 8.21198 10.1875C8.21198 14.4598 11.4595 17.9737 15.6207 18.3951C15.6722 18.4003 15.712 18.4435 15.712 18.4953V19.3776C15.712 19.436 15.6618 19.482 15.6037 19.4767C10.8542 19.0434 7.13385 15.0499 7.13385 10.1875C7.13385 9.77329 6.79806 9.4375 6.38385 9.4375C5.96964 9.4375 5.63385 9.77329 5.63385 10.1875C5.63385 15.8839 10.0325 20.5529 15.6185 20.9833C15.6709 20.9873 15.712 21.0309 15.712 21.0834V24.8303C15.712 24.8759 15.6811 24.9155 15.6372 24.9281C15.1515 25.067 14.7042 25.3276 14.3406 25.6912C13.8372 26.1946 13.5312 26.8586 13.4724 27.5628C13.4609 27.7004 13.5739 27.8125 13.712 27.8125H19.212Z" fill="#6A4EBE"/>
</g>
<g filter="url(#filter4_ii_18590_1109)">
<path d="M6.58868 5.54877L7.20869 6.65358C7.53902 7.2422 7.11361 7.96875 6.43864 7.96875C5.77832 7.96875 5.35161 7.27049 5.65286 6.68288L6.23083 5.55551C6.30474 5.41135 6.5094 5.4075 6.58868 5.54877Z" fill="#FCF2FF"/>
<path d="M9.73994 6.65358L9.11993 5.54877C9.04065 5.4075 8.83599 5.41135 8.76208 5.55551L8.18411 6.68288C7.88286 7.27049 8.30957 7.96875 8.96989 7.96875C9.64486 7.96875 10.0703 7.2422 9.73994 6.65358Z" fill="#FCF2FF"/>
<path d="M11.6199 5.54877L12.2399 6.65358C12.5703 7.2422 12.1449 7.96875 11.4699 7.96875C10.8096 7.96875 10.3829 7.27049 10.6841 6.68288L11.2621 5.55551C11.336 5.41135 11.5406 5.4075 11.6199 5.54877Z" fill="#FCF2FF"/>
<path d="M19.7161 6.65358L19.0961 5.54877C19.0168 5.4075 18.8121 5.41135 18.7382 5.55551L18.1602 6.68288C17.859 7.27049 18.2857 7.96875 18.946 7.96875C19.621 7.96875 20.0464 7.2422 19.7161 6.65358Z" fill="#FCF2FF"/>
<path d="M27.2239 6.65358L26.6039 5.54877C26.5246 5.4075 26.3199 5.41135 26.246 5.55551L25.6681 6.68288C25.3668 7.27049 25.7935 7.96875 26.4538 7.96875C27.1288 7.96875 27.5542 7.2422 27.2239 6.65358Z" fill="#FCF2FF"/>
<path d="M24.7239 6.65358L24.1039 5.54877C24.0246 5.4075 23.8199 5.41135 23.746 5.55551L23.1681 6.68288C22.8668 7.27049 23.2935 7.96875 23.9538 7.96875C24.6288 7.96875 25.0542 7.2422 24.7239 6.65358Z" fill="#FCF2FF"/>
<path d="M16.5961 5.54877L17.2161 6.65358C17.5464 7.2422 17.121 7.96875 16.446 7.96875C15.7857 7.96875 15.359 7.27049 15.6602 6.68288L16.2382 5.55551C16.3121 5.41135 16.5168 5.4075 16.5961 5.54877Z" fill="#FCF2FF"/>
<path d="M21.5726 5.54877L22.1926 6.65358C22.523 7.2422 22.0976 7.96875 21.4226 7.96875C20.7623 7.96875 20.3356 7.27049 20.6368 6.68288L21.2148 5.55551C21.2887 5.41135 21.4933 5.4075 21.5726 5.54877Z" fill="#FCF2FF"/>
<path d="M14.6848 6.65358L14.0648 5.54877C13.9855 5.4075 13.7809 5.41135 13.707 5.55551L13.129 6.68288C12.8277 7.27049 13.2545 7.96875 13.9148 7.96875C14.5897 7.96875 15.0152 7.2422 14.6848 6.65358Z" fill="#FCF2FF"/>
<path d="M19.212 27.8125C19.35 27.8125 19.463 27.7004 19.4516 27.5628C19.3928 26.8586 19.0867 26.1946 18.5833 25.6912C18.2197 25.3276 17.7724 25.067 17.2867 24.9281C17.2429 24.9156 17.212 24.8759 17.212 24.8303V21.0834C17.212 21.0309 17.2531 20.9873 17.3055 20.9833C22.8915 20.5529 27.2901 15.8839 27.2901 10.1875C27.2901 9.77329 26.9543 9.4375 26.5401 9.4375C26.1259 9.4375 25.7901 9.77329 25.7901 10.1875C25.7901 15.0499 22.0697 19.0434 17.3202 19.4767C17.2621 19.482 17.212 19.436 17.212 19.3776V18.4953C17.212 18.4435 17.2518 18.4003 17.3033 18.3951C21.4644 17.9737 24.712 14.4598 24.712 10.1875C24.712 9.77329 24.3762 9.4375 23.962 9.4375C23.5478 9.4375 23.212 9.77329 23.212 10.1875C23.212 13.6237 20.6444 16.4601 17.3232 16.8831C17.2641 16.8906 17.212 16.8442 17.212 16.7846V15.9768C17.212 15.9266 17.2495 15.8842 17.2992 15.877C20.078 15.4716 22.212 13.0788 22.212 10.1875C22.212 9.77329 21.8762 9.4375 21.462 9.4375C21.0478 9.4375 20.712 9.77329 20.712 10.1875C20.712 12.2375 19.2606 13.9485 17.3293 14.3489C17.2684 14.3616 17.212 14.3144 17.212 14.2522V13.4297C17.212 13.3833 17.244 13.3431 17.2889 13.3314C18.6833 12.9656 19.712 11.6967 19.712 10.1875C19.712 9.77329 19.3762 9.4375 18.962 9.4375C18.5478 9.4375 18.212 9.77329 18.212 10.1875C18.212 10.8292 17.8666 11.3902 17.3516 11.6948C17.2884 11.7322 17.212 11.6843 17.212 11.6109V10.1875C17.212 9.77329 16.8762 9.4375 16.462 9.4375C16.0478 9.4375 15.712 9.77329 15.712 10.1875V11.6109C15.712 11.6843 15.6355 11.7322 15.5723 11.6948C15.0573 11.3902 14.712 10.8292 14.712 10.1875C14.712 9.77329 14.3762 9.4375 13.962 9.4375C13.5478 9.4375 13.212 9.77329 13.212 10.1875C13.212 11.6967 14.2407 12.9656 15.6351 13.3314C15.68 13.3431 15.712 13.3833 15.712 13.4297V14.2522C15.712 14.3144 15.6555 14.3616 15.5946 14.3489C13.6634 13.9485 12.212 12.2375 12.212 10.1875C12.212 9.77329 11.8762 9.4375 11.462 9.4375C11.0478 9.4375 10.712 9.77329 10.712 10.1875C10.712 13.0788 12.8459 15.4716 15.6247 15.877C15.6745 15.8842 15.712 15.9266 15.712 15.9768V16.7846C15.712 16.8442 15.6599 16.8906 15.6008 16.8831C12.2795 16.4601 9.71198 13.6237 9.71198 10.1875C9.71198 9.77329 9.37619 9.4375 8.96198 9.4375C8.54776 9.4375 8.21198 9.77329 8.21198 10.1875C8.21198 14.4598 11.4595 17.9737 15.6207 18.3951C15.6722 18.4003 15.712 18.4435 15.712 18.4953V19.3776C15.712 19.436 15.6618 19.482 15.6037 19.4767C10.8542 19.0434 7.13385 15.0499 7.13385 10.1875C7.13385 9.77329 6.79806 9.4375 6.38385 9.4375C5.96964 9.4375 5.63385 9.77329 5.63385 10.1875C5.63385 15.8839 10.0325 20.5529 15.6185 20.9833C15.6709 20.9873 15.712 21.0309 15.712 21.0834V24.8303C15.712 24.8759 15.6811 24.9155 15.6372 24.9281C15.1515 25.067 14.7042 25.3276 14.3406 25.6912C13.8372 26.1946 13.5312 26.8586 13.4724 27.5628C13.4609 27.7004 13.5739 27.8125 13.712 27.8125H19.212Z" fill="#FCF2FF"/>
</g>
<defs>
<filter id="filter0_ii_18590_1109" x="2.51233" y="1.4375" width="29.875" height="28.875" filterUnits="userSpaceOnUse" color-interpolation-filters="sRGB">
<feFlood flood-opacity="0" result="BackgroundImageFix"/>
<feBlend mode="normal" in="SourceGraphic" in2="BackgroundImageFix" result="shape"/>
<feColorMatrix in="SourceAlpha" type="matrix" values="0 0 0 0 0 0 0 0 0 0 0 0 0 0 0 0 0 0 127 0" result="hardAlpha"/>
<feOffset dx="2" dy="-1"/>
<feGaussianBlur stdDeviation="1.5"/>
<feComposite in2="hardAlpha" operator="arithmetic" k2="-1" k3="1"/>
<feColorMatrix type="matrix" values="0 0 0 0 0.298039 0 0 0 0 0.235294 0 0 0 0 0.6 0 0 0 1 0"/>
<feBlend mode="normal" in2="shape" result="effect1_innerShadow_18590_1109"/>
<feColorMatrix in="SourceAlpha" type="matrix" values="0 0 0 0 0 0 0 0 0 0 0 0 0 0 0 0 0 0 127 0" result="hardAlpha"/>
<feOffset dy="-1"/>
<feGaussianBlur stdDeviation="1.5"/>
<feComposite in2="hardAlpha" operator="arithmetic" k2="-1" k3="1"/>
<feColorMatrix type="matrix" values="0 0 0 0 0.352941 0 0 0 0 0.211765 0 0 0 0 0.709804 0 0 0 1 0"/>
<feBlend mode="normal" in2="effect1_innerShadow_18590_1109" result="effect2_innerShadow_18590_1109"/>
</filter>
<filter id="filter1_f_18590_1109" x="25.9498" y="2.1875" width="5.5" height="28.375" filterUnits="userSpaceOnUse" color-interpolation-filters="sRGB">
<feFlood flood-opacity="0" result="BackgroundImageFix"/>
<feBlend mode="normal" in="SourceGraphic" in2="BackgroundImageFix" result="shape"/>
<feGaussianBlur stdDeviation="1" result="effect1_foregroundBlur_18590_1109"/>
</filter>
<filter id="filter2_f_18590_1109" x="3.2262" y="1.5" width="27.2812" height="5.5" filterUnits="userSpaceOnUse" color-interpolation-filters="sRGB">
<feFlood flood-opacity="0" result="BackgroundImageFix"/>
<feBlend mode="normal" in="SourceGraphic" in2="BackgroundImageFix" result="shape"/>
<feGaussianBlur stdDeviation="1" result="effect1_foregroundBlur_18590_1109"/>
</filter>
<filter id="filter3_f_18590_1109" x="4.55444" y="4.44507" width="23.7837" height="24.3674" filterUnits="userSpaceOnUse" color-interpolation-filters="sRGB">
<feFlood flood-opacity="0" result="BackgroundImageFix"/>
<feBlend mode="normal" in="SourceGraphic" in2="BackgroundImageFix" result="shape"/>
<feGaussianBlur stdDeviation="0.5" result="effect1_foregroundBlur_18590_1109"/>
</filter>
<filter id="filter4_ii_18590_1109" x="5.15444" y="5.04507" width="22.5837" height="23.1674" filterUnits="userSpaceOnUse" color-interpolation-filters="sRGB">
<feFlood flood-opacity="0" result="BackgroundImageFix"/>
<feBlend mode="normal" in="SourceGraphic" in2="BackgroundImageFix" result="shape"/>
<feColorMatrix in="SourceAlpha" type="matrix" values="0 0 0 0 0 0 0 0 0 0 0 0 0 0 0 0 0 0 127 0" result="hardAlpha"/>
<feOffset dx="-0.4" dy="0.4"/>
<feGaussianBlur stdDeviation="0.375"/>
<feComposite in2="hardAlpha" operator="arithmetic" k2="-1" k3="1"/>
<feColorMatrix type="matrix" values="0 0 0 0 0.913725 0 0 0 0 0.886275 0 0 0 0 0.968627 0 0 0 1 0"/>
<feBlend mode="normal" in2="shape" result="effect1_innerShadow_18590_1109"/>
<feColorMatrix in="SourceAlpha" type="matrix" values="0 0 0 0 0 0 0 0 0 0 0 0 0 0 0 0 0 0 127 0" result="hardAlpha"/>
<feOffset dx="0.4" dy="-0.4"/>
<feGaussianBlur stdDeviation="0.2"/>
<feComposite in2="hardAlpha" operator="arithmetic" k2="-1" k3="1"/>
<feColorMatrix type="matrix" values="0 0 0 0 1 0 0 0 0 0.988235 0 0 0 0 1 0 0 0 1 0"/>
<feBlend mode="normal" in2="effect1_innerShadow_18590_1109" result="effect2_innerShadow_18590_1109"/>
</filter>
<linearGradient id="paint0_linear_18590_1109" x1="16.4498" y1="6.01201" x2="16.4498" y2="39.2647" gradientUnits="userSpaceOnUse">
<stop stop-color="#9865EE"/>
<stop offset="1" stop-color="#7764C6"/>
</linearGradient>
<radialGradient id="paint1_radial_18590_1109" cx="0" cy="0" r="1" gradientUnits="userSpaceOnUse" gradientTransform="translate(28.1686 4.53125) rotate(136.771) scale(2.14444 2.50466)">
<stop stop-color="#BB8DFF"/>
<stop offset="1" stop-color="#BB8DFF" stop-opacity="0"/>
</radialGradient>
<linearGradient id="paint2_linear_18590_1109" x1="29.1998" y1="4.9375" x2="29.1998" y2="27.8125" gradientUnits="userSpaceOnUse">
<stop stop-color="#AE7EFF"/>
<stop offset="1" stop-color="#8777D6"/>
</linearGradient>
<linearGradient id="paint3_linear_18590_1109" x1="28.9137" y1="4.50002" x2="3.38245" y2="4.50002" gradientUnits="userSpaceOnUse">
<stop stop-color="#A672FF"/>
<stop offset="1" stop-color="#9A6CEB"/>
</linearGradient>
</defs>
</svg>

<svg width="100%" height="100%" viewBox="0 0 32 32" xmlns="http://www.w3.org/2000/svg"><g filter="url(#a)"><rect width="27.875" height="27.875" x="2.512" y="2.438" fill="url(#b)" rx="3.6"/><rect width="27.875" height="27.875" x="2.512" y="2.438" fill="url(#c)" rx="3.6"/></g><g filter="url(#d)"><path stroke="url(#e)" stroke-linecap="round" stroke-width="1.5" d="M28.7 4.938v22.875"/></g><g filter="url(#f)"><path stroke="url(#g)" stroke-linecap="round" stroke-width="1.5" d="M5.976 4.25h21.781"/></g><g fill="#6A4EBE" filter="url(#h)"><path d="m6.589 5.549.62 1.105a.883.883 0 1 1-1.556.029l.578-1.127a.203.203 0 0 1 .358-.007M9.74 6.654l-.62-1.105a.203.203 0 0 0-.358.007l-.578 1.127a.883.883 0 1 0 1.556-.03M11.62 5.549l.62 1.105a.883.883 0 1 1-1.556.029l.578-1.127a.203.203 0 0 1 .358-.007M19.716 6.654l-.62-1.105a.203.203 0 0 0-.358.007l-.578 1.127a.883.883 0 1 0 1.556-.03M27.224 6.654l-.62-1.105a.203.203 0 0 0-.358.007l-.578 1.127a.883.883 0 1 0 1.556-.03M24.724 6.654l-.62-1.105a.203.203 0 0 0-.358.007l-.578 1.127a.883.883 0 1 0 1.556-.03M16.596 5.549l.62 1.105a.883.883 0 1 1-1.556.029l.578-1.127a.203.203 0 0 1 .358-.007M21.573 5.549l.62 1.105a.883.883 0 1 1-1.556.029l.578-1.127a.203.203 0 0 1 .358-.007M14.685 6.654l-.62-1.105a.203.203 0 0 0-.358.007l-.578 1.127a.883.883 0 1 0 1.556-.03M19.212 27.813a.235.235 0 0 0 .24-.25 3 3 0 0 0-2.165-2.635.1.1 0 0 1-.075-.098v-3.747c0-.052.041-.096.093-.1 5.587-.43 9.985-5.1 9.985-10.795a.75.75 0 0 0-1.5 0c0 4.862-3.72 8.855-8.47 9.289a.1.1 0 0 1-.108-.1v-.882c0-.052.04-.095.091-.1a8.25 8.25 0 0 0 7.409-8.207.75.75 0 0 0-1.5 0 6.75 6.75 0 0 1-5.889 6.695.1.1 0 0 1-.111-.098v-.808c0-.05.038-.093.087-.1a5.75 5.75 0 0 0 4.913-5.69.75.75 0 0 0-1.5 0 4.25 4.25 0 0 1-3.383 4.162.098.098 0 0 1-.117-.097v-.822c0-.047.032-.087.077-.099a3.25 3.25 0 0 0 2.423-3.143.75.75 0 0 0-1.5 0 1.75 1.75 0 0 1-.86 1.507c-.064.037-.14-.01-.14-.084v-1.424a.75.75 0 0 0-1.5 0v1.424c0 .073-.076.121-.14.084a1.75 1.75 0 0 1-.86-1.508.75.75 0 0 0-1.5 0 3.25 3.25 0 0 0 2.423 3.144.1.1 0 0 1 .077.099v.822c0 .062-.056.11-.117.097a4.25 4.25 0 0 1-3.383-4.161.75.75 0 0 0-1.5 0 5.75 5.75 0 0 0 4.913 5.689c.05.007.087.05.087.1v.808c0 .06-.052.106-.111.098a6.75 6.75 0 0 1-5.889-6.695.75.75 0 0 0-1.5 0 8.25 8.25 0 0 0 7.409 8.207.1.1 0 0 1 .091.1v.883a.1.1 0 0 1-.108.099c-4.75-.434-8.47-4.427-8.47-9.29a.75.75 0 0 0-1.5 0c0 5.697 4.399 10.366 9.984 10.796a.1.1 0 0 1 .094.1v3.747c0 .046-.03.086-.075.098a3 3 0 0 0-2.165 2.635.235.235 0 0 0 .24.25z"/></g><g fill="#FCF2FF" filter="url(#i)"><path d="m6.589 5.549.62 1.105a.883.883 0 1 1-1.556.029l.578-1.127a.203.203 0 0 1 .358-.007M9.74 6.654l-.62-1.105a.203.203 0 0 0-.358.007l-.578 1.127a.883.883 0 1 0 1.556-.03M11.62 5.549l.62 1.105a.883.883 0 1 1-1.556.029l.578-1.127a.203.203 0 0 1 .358-.007M19.716 6.654l-.62-1.105a.203.203 0 0 0-.358.007l-.578 1.127a.883.883 0 1 0 1.556-.03M27.224 6.654l-.62-1.105a.203.203 0 0 0-.358.007l-.578 1.127a.883.883 0 1 0 1.556-.03M24.724 6.654l-.62-1.105a.203.203 0 0 0-.358.007l-.578 1.127a.883.883 0 1 0 1.556-.03M16.596 5.549l.62 1.105a.883.883 0 1 1-1.556.029l.578-1.127a.203.203 0 0 1 .358-.007M21.573 5.549l.62 1.105a.883.883 0 1 1-1.556.029l.578-1.127a.203.203 0 0 1 .358-.007M14.685 6.654l-.62-1.105a.203.203 0 0 0-.358.007l-.578 1.127a.883.883 0 1 0 1.556-.03M19.212 27.813a.235.235 0 0 0 .24-.25 3 3 0 0 0-2.165-2.635.1.1 0 0 1-.075-.098v-3.747c0-.052.041-.096.093-.1 5.587-.43 9.985-5.1 9.985-10.795a.75.75 0 0 0-1.5 0c0 4.862-3.72 8.855-8.47 9.289a.1.1 0 0 1-.108-.1v-.882c0-.052.04-.095.091-.1a8.25 8.25 0 0 0 7.409-8.207.75.75 0 0 0-1.5 0 6.75 6.75 0 0 1-5.889 6.695.1.1 0 0 1-.111-.098v-.808c0-.05.038-.093.087-.1a5.75 5.75 0 0 0 4.913-5.69.75.75 0 0 0-1.5 0 4.25 4.25 0 0 1-3.383 4.162.098.098 0 0 1-.117-.097v-.822c0-.047.032-.087.077-.099a3.25 3.25 0 0 0 2.423-3.143.75.75 0 0 0-1.5 0 1.75 1.75 0 0 1-.86 1.507c-.064.037-.14-.01-.14-.084v-1.424a.75.75 0 0 0-1.5 0v1.424c0 .073-.076.121-.14.084a1.75 1.75 0 0 1-.86-1.508.75.75 0 0 0-1.5 0 3.25 3.25 0 0 0 2.423 3.144.1.1 0 0 1 .077.099v.822c0 .062-.056.11-.117.097a4.25 4.25 0 0 1-3.383-4.161.75.75 0 0 0-1.5 0 5.75 5.75 0 0 0 4.913 5.689c.05.007.087.05.087.1v.808c0 .06-.052.106-.111.098a6.75 6.75 0 0 1-5.889-6.695.75.75 0 0 0-1.5 0 8.25 8.25 0 0 0 7.409 8.207.1.1 0 0 1 .091.1v.883a.1.1 0 0 1-.108.099c-4.75-.434-8.47-4.427-8.47-9.29a.75.75 0 0 0-1.5 0c0 5.697 4.399 10.366 9.984 10.796a.1.1 0 0 1 .094.1v3.747c0 .046-.03.086-.075.098a3 3 0 0 0-2.165 2.635.235.235 0 0 0 .24.25z"/></g><defs><filter id="a" width="29.875" height="28.875" x="2.512" y="1.438" color-interpolation-filters="sRGB" filterUnits="userSpaceOnUse"><feFlood flood-opacity="0" result="BackgroundImageFix"/><feBlend in="SourceGraphic" in2="BackgroundImageFix" result="shape"/><feColorMatrix in="SourceAlpha" result="hardAlpha" values="0 0 0 0 0 0 0 0 0 0 0 0 0 0 0 0 0 0 127 0"/><feOffset dx="2" dy="-1"/><feGaussianBlur stdDeviation="1.5"/><feComposite in2="hardAlpha" k2="-1" k3="1" operator="arithmetic"/><feColorMatrix values="0 0 0 0 0.298039 0 0 0 0 0.235294 0 0 0 0 0.6 0 0 0 1 0"/><feBlend in2="shape" result="effect1_innerShadow_18590_1109"/><feColorMatrix in="SourceAlpha" result="hardAlpha" values="0 0 0 0 0 0 0 0 0 0 0 0 0 0 0 0 0 0 127 0"/><feOffset dy="-1"/><feGaussianBlur stdDeviation="1.5"/><feComposite in2="hardAlpha" k2="-1" k3="1" operator="arithmetic"/><feColorMatrix values="0 0 0 0 0.352941 0 0 0 0 0.211765 0 0 0 0 0.709804 0 0 0 1 0"/><feBlend in2="effect1_innerShadow_18590_1109" result="effect2_innerShadow_18590_1109"/></filter><filter id="d" width="5.5" height="28.375" x="25.95" y="2.188" color-interpolation-filters="sRGB" filterUnits="userSpaceOnUse"><feFlood flood-opacity="0" result="BackgroundImageFix"/><feBlend in="SourceGraphic" in2="BackgroundImageFix" result="shape"/><feGaussianBlur result="effect1_foregroundBlur_18590_1109" stdDeviation="1"/></filter><filter id="f" width="27.281" height="5.5" x="3.226" y="1.5" color-interpolation-filters="sRGB" filterUnits="userSpaceOnUse"><feFlood flood-opacity="0" result="BackgroundImageFix"/><feBlend in="SourceGraphic" in2="BackgroundImageFix" result="shape"/><feGaussianBlur result="effect1_foregroundBlur_18590_1109" stdDeviation="1"/></filter><filter id="h" width="23.784" height="24.367" x="4.554" y="4.445" color-interpolation-filters="sRGB" filterUnits="userSpaceOnUse"><feFlood flood-opacity="0" result="BackgroundImageFix"/><feBlend in="SourceGraphic" in2="BackgroundImageFix" result="shape"/><feGaussianBlur result="effect1_foregroundBlur_18590_1109" stdDeviation=".5"/></filter><filter id="i" width="22.584" height="23.167" x="5.154" y="5.045" color-interpolation-filters="sRGB" filterUnits="userSpaceOnUse"><feFlood flood-opacity="0" result="BackgroundImageFix"/><feBlend in="SourceGraphic" in2="BackgroundImageFix" result="shape"/><feColorMatrix in="SourceAlpha" result="hardAlpha" values="0 0 0 0 0 0 0 0 0 0 0 0 0 0 0 0 0 0 127 0"/><feOffset dx="-.4" dy=".4"/><feGaussianBlur stdDeviation=".375"/><feComposite in2="hardAlpha" k2="-1" k3="1" operator="arithmetic"/><feColorMatrix values="0 0 0 0 0.913725 0 0 0 0 0.886275 0 0 0 0 0.968627 0 0 0 1 0"/><feBlend in2="shape" result="effect1_innerShadow_18590_1109"/><feColorMatrix in="SourceAlpha" result="hardAlpha" values="0 0 0 0 0 0 0 0 0 0 0 0 0 0 0 0 0 0 127 0"/><feOffset dx=".4" dy="-.4"/><feGaussianBlur stdDeviation=".2"/><feComposite in2="hardAlpha" k2="-1" k3="1" operator="arithmetic"/><feColorMatrix values="0 0 0 0 1 0 0 0 0 0.988235 0 0 0 0 1 0 0 0 1 0"/><feBlend in2="effect1_innerShadow_18590_1109" result="effect2_innerShadow_18590_1109"/></filter><linearGradient id="b" x1="16.45" x2="16.45" y1="6.012" y2="39.265" gradientUnits="userSpaceOnUse"><stop stop-color="#9865EE"/><stop offset="1" stop-color="#7764C6"/></linearGradient><linearGradient id="e" x1="29.2" x2="29.2" y1="4.938" y2="27.813" gradientUnits="userSpaceOnUse"><stop stop-color="#AE7EFF"/><stop offset="1" stop-color="#8777D6"/></linearGradient><linearGradient id="g" x1="28.914" x2="3.382" y1="4.5" y2="4.5" gradientUnits="userSpaceOnUse"><stop stop-color="#A672FF"/><stop offset="1" stop-color="#9A6CEB"/></linearGradient><radialGradient id="c" cx="0" cy="0" r="1" gradientTransform="matrix(-1.56249 1.46876 -1.71548 -1.82495 28.169 4.531)" gradientUnits="userSpaceOnUse"><stop stop-color="#BB8DFF"/><stop offset="1" stop-color="#BB8DFF" stop-opacity="0"/></radialGradient></defs></svg>
